X: 100247
M: C|
L: 1/8
K: D
(uFE) | DFAF DFA,F | EGAG EGA,G | FAdF GBec | Adfd cAGE |
|: (ucd) |\
ecAc EAce | fdAd FAdf | g2(fg) efdf | ((3edc) ((3dcB) ABcd |
ecAc EAce | fdAd | FAdf | gbag fedc | d2d2 d2 :|


